rospo-newyear-dark/symbolic/emotes/face-uncertain-symbolic.svg

<svg height="16" width="16" xmlns="http://www.w3.org/2000/svg"><path d="m8 1c-3.87 0-7 3.13-7 7 0 3.86 3.13 7 7 7s7-3.14 7-7c0-3.87-3.13-7-7-7zm-3 4c .55 0 1 .45 1 1s-.45 1-1 1-1-.45-1-1 .45-1 1-1zm6 0c .55 0 1 .45 1 1s-.45 1-1 1-1-.45-1-1 .45-1 1-1zm .69 4.53c.21-.01.64.03.84.4.27.5-.34 1.13-.34 1.13s-4.95 1.35-4.97 1.34c-.39-.2-.63-.63-.19-1.06.03-.01 4.53-1.76 4.53-1.78 0-.01.06-.03.13-.03z" fill="#d3dae3"/></svg>

<svg xmlns="http://www.w3.org/2000/svg" width="16" height="16" version="1.1">
 <path style="fill:#d3dae3" d="M 8,1 C 4.13,1 1,4.13 1,8 1,11.86 4.13,15 8,15 11.87,15 15,11.86 15,8 15,4.13 11.87,1 8,1 Z M 5,5 C 5.55,5 6,5.45 6,6 6,6.55 5.55,7 5,7 4.45,7 4,6.55 4,6 4,5.45 4.45,5 5,5 Z M 11,5 C 11.55,5 12,5.45 12,6 12,6.55 11.55,7 11,7 10.45,7 10,6.55 10,6 10,5.45 10.45,5 11,5 Z M 11.69,9.53 C 11.9,9.52 12.33,9.56 12.53,9.93 12.8,10.43 12.19,11.06 12.19,11.06 12.19,11.06 7.24,12.41 7.22,12.4 6.83,12.2 6.59,11.77 7.03,11.34 7.06,11.33 11.56,9.58 11.56,9.56 11.56,9.55 11.62,9.53 11.69,9.53 Z"/>
</svg>
